core/resources/src/main/assets/svg/objects/zzzz_image_toolbox.svg

<svg fill="none" height="674" viewBox="0 0 678 674" width="678" xmlns="http://www.w3.org/2000/svg">
    <g clip-path="url(#clip0_363_12)">
        <path
            d="M657.861 293.174C666.58 313.811 670.94 324.129 671.011 335.03C671.082 345.931 666.857 356.305 658.407 377.054L656.464 381.825C652.664 391.155 650.764 395.819 649.748 400.724C648.733 405.629 648.624 410.665 648.405 420.736L648.293 425.919C647.809 448.268 647.567 459.443 643.189 469.402C638.812 479.361 630.742 487.095 614.603 502.563L610.622 506.38C603.378 513.322 599.756 516.793 596.838 520.84C593.92 524.886 591.77 529.418 587.47 538.483L585.074 543.533C575.541 563.628 570.774 573.676 562.758 580.953C554.743 588.231 544.283 592.008 523.363 599.562L517.691 601.611C508.305 605 503.612 606.695 499.324 609.192C495.036 611.69 491.246 614.936 483.667 621.427L479.036 625.394C462.221 639.796 453.814 646.997 443.579 650.38C433.344 653.764 422.301 652.993 400.216 651.45L393.873 651.007C383.95 650.314 378.988 649.968 374.071 650.514C369.155 651.06 364.39 652.486 354.86 655.339L348.755 657.167C327.569 663.509 316.976 666.681 306.259 665.63C295.542 664.58 285.766 659.412 266.215 649.076L260.662 646.14C251.858 641.486 247.455 639.159 242.733 637.668C238.011 636.177 233.07 635.554 223.189 634.31L217.001 633.53C194.991 630.757 183.986 629.371 174.587 624.051C165.188 618.732 158.334 610.01 144.627 592.568L141.01 587.966C134.828 580.099 131.737 576.165 128.008 572.872C124.279 569.579 119.993 566.998 111.422 561.836L106.474 558.856C87.3691 547.35 77.8168 541.597 71.3599 532.872C64.9029 524.146 62.1931 513.33 56.7736 491.696L55.4729 486.504C53.0289 476.748 51.8069 471.87 49.7326 467.32C47.6583 462.77 44.7775 458.648 39.016 450.404L35.9833 446.065C23.1569 427.712 16.7436 418.536 14.3987 407.896C12.0538 397.256 14.0156 386.234 17.9392 364.19L18.8351 359.157C20.6014 349.233 21.4846 344.271 21.452 339.259C21.4193 334.248 20.4716 329.298 18.5762 319.398L17.6149 314.376C13.4046 292.385 11.2994 281.39 13.5056 270.72C15.7118 260.05 22.0049 250.791 34.5913 232.273L37.5673 227.895C43.2209 219.577 46.0478 215.418 48.0626 210.841C50.0775 206.264 51.2359 201.371 53.5527 191.584L54.7857 186.375C59.9231 164.673 62.4917 153.822 68.8345 145.013C75.1773 136.205 84.6539 130.328 103.607 118.574L108.516 115.53C117.019 110.257 121.271 107.62 124.957 104.279C128.643 100.937 131.682 96.9636 137.762 89.0167L141.318 84.3683C154.797 66.7486 161.536 57.9387 170.866 52.497C180.195 47.0553 191.181 45.5258 213.153 42.4668L219.33 41.6068C229.194 40.2336 234.126 39.547 238.829 37.9947C243.531 36.4424 247.903 34.058 256.646 29.2893L262.16 26.2816C281.575 15.6921 291.282 10.3973 301.985 9.20726C312.687 8.01724 323.321 11.0503 344.587 17.1164L350.716 18.8646C360.282 21.5932 365.065 22.9576 369.989 23.4394C374.912 23.9212 379.869 23.5101 389.782 22.688L396.118 22.1626C418.182 20.3328 429.214 19.4179 439.492 22.6678C449.77 25.9177 458.27 33.0087 475.271 47.1906L479.953 51.0963C487.616 57.4887 491.448 60.685 495.768 63.1264C500.088 65.5678 504.803 67.2012 514.232 70.4681L519.931 72.4425C540.947 79.7236 551.455 83.3641 559.565 90.5369C567.675 97.7097 572.572 107.694 582.366 127.663L584.827 132.681C589.246 141.69 591.455 146.194 594.425 150.202C597.396 154.21 601.062 157.634 608.396 164.481L612.427 168.245C628.766 183.502 636.935 191.13 641.442 201.031C645.949 210.933 646.337 222.103 647.112 244.444L647.291 249.625C647.641 259.693 647.815 264.727 648.895 269.618C649.974 274.509 651.935 279.149 655.856 288.429L657.861 293.174Z"
            fill="#274F13" />
        <path clip-rule="evenodd"
            d="M378.601 269.808V295.223C378.601 299.587 380.128 303.245 383.182 306.197C386.235 309.149 390.02 310.625 394.534 310.625H420.824C422.948 310.625 425.006 310.24 426.998 309.47C428.99 308.7 430.782 307.545 432.375 306.005L515.228 225.91C517.618 223.599 519.344 220.968 520.407 218.016C521.469 215.064 522 212.176 522 209.352C522 206.528 521.403 203.704 520.208 200.88C519.013 198.056 517.353 195.489 515.228 193.179L500.49 178.931C498.1 176.621 495.445 174.888 492.524 173.733C489.602 172.578 486.549 172 483.362 172C480.441 172 477.52 172.513 474.599 173.54C471.678 174.567 469.022 176.236 466.632 178.546L383.381 258.641C381.787 260.181 380.592 261.914 379.796 263.839C378.999 265.765 378.601 267.754 378.601 269.808ZM417.637 287.521H402.501V272.889L451.097 226.295L465.835 240.543L417.637 287.521Z"
            fill="#9CE44C" fill-rule="evenodd" />
        <path
            d="M460.581 351.653C460.581 332.583 460.567 317.115 460.162 304.201L486.996 278.26C489.05 296.755 489.05 320.331 489.05 351.653C489.05 414.981 489.05 446.645 472.075 468.667C467.118 475.098 461.221 480.798 454.569 485.59C431.789 502 399.034 502 333.525 502C268.016 502 235.261 502 212.481 485.59C205.829 480.798 199.932 475.098 194.975 468.667C178 446.645 178 414.981 178 351.653C178 288.324 178 256.66 194.975 234.638C199.932 228.207 205.829 222.507 212.481 217.715C235.261 201.305 268.016 201.305 333.525 201.305C369.02 201.305 394.899 201.305 414.786 203.915L388.39 229.432C373.921 228.844 356.18 228.826 333.525 228.826C300.123 228.826 277.403 228.865 260.103 230.711C243.354 232.498 235.163 235.698 229.492 239.783C225.05 242.983 221.113 246.789 217.803 251.082C213.577 256.565 210.268 264.483 208.419 280.675C206.51 297.399 206.469 319.363 206.469 351.653C206.469 383.942 206.51 405.906 208.419 422.63C208.834 426.269 209.324 429.489 209.88 432.358L210.157 432.163C235.92 414.007 262.585 395.213 285.403 407.931L304.91 419.526C323.964 430.944 345.887 411.487 369.697 390.356C385.743 376.115 402.645 361.114 420.104 354.291C436.046 348.061 446.733 353.42 460.574 364.542C460.58 360.436 460.581 356.144 460.581 351.653Z"
            fill="#9CE44C" />
        <path
            d="M252.072 302.726C252.072 320.774 266.879 335.089 285.549 335.089C304.22 335.089 319.027 320.152 319.027 302.726C319.027 284.677 304.22 270.363 285.549 270.363C266.879 270.363 252.072 284.677 252.072 302.726Z"
            fill="#9CE44C" />
    </g>
    <defs>
        <clipPath id="clip0_363_12">
            <rect fill="white" height="674" width="678" />
        </clipPath>
    </defs>
</svg>

<svg xmlns="http://www.w3.org/2000/svg" width="678" height="674" fill="none" viewBox="0 0 678 674"><g clip-path="url(#a)"><path fill="#274f13" d="M657.861 293.174c8.719 20.637 13.079 30.955 13.15 41.856s-4.154 21.275-12.604 42.024l-1.943 4.771c-3.8 9.33-5.7 13.994-6.716 18.899-1.015 4.905-1.124 9.941-1.343 20.012l-.112 5.183c-.484 22.349-.726 33.524-5.104 43.483-4.377 9.959-12.447 17.693-28.586 33.161l-3.981 3.817c-7.244 6.942-10.866 10.413-13.784 14.46-2.918 4.046-5.068 8.578-9.368 17.643l-2.396 5.05c-9.533 20.095-14.3 30.143-22.316 37.42s-18.475 11.055-39.395 18.609l-5.672 2.049c-9.386 3.389-14.079 5.084-18.367 7.581s-8.078 5.744-15.657 12.235l-4.631 3.967c-16.815 14.402-25.222 21.603-35.457 24.986-10.235 3.384-21.278 2.613-43.363 1.07l-6.343-.443c-9.923-.693-14.885-1.039-19.802-.493s-9.681 1.972-19.211 4.825l-6.105 1.828c-21.186 6.342-31.779 9.514-42.496 8.463-10.717-1.05-20.493-6.218-40.044-16.554l-5.553-2.936c-8.804-4.654-13.207-6.981-17.929-8.472s-9.663-2.114-19.544-3.358l-6.188-.78c-22.01-2.773-33.015-4.159-42.414-9.479s-16.253-14.041-29.96-31.483l-3.617-4.602c-6.182-7.867-9.273-11.801-13.002-15.094s-8.015-5.874-16.586-11.036l-4.948-2.98c-19.105-11.506-28.657-17.259-35.114-25.984s-9.167-19.542-14.586-41.176l-1.301-5.192c-2.444-9.756-3.666-14.634-5.74-19.184s-4.955-8.672-10.717-16.916l-3.033-4.339c-12.826-18.353-19.24-27.529-21.584-38.169s-.383-21.662 3.54-43.706l.896-5.033c1.766-9.924 2.65-14.886 2.617-19.898-.033-5.011-.98-9.961-2.876-19.861l-.961-5.022c-4.21-21.991-6.316-32.986-4.11-43.656 2.207-10.67 8.5-19.929 21.086-38.447l2.976-4.378c5.654-8.318 8.48-12.477 10.496-17.054 2.014-4.577 3.173-9.47 5.49-19.257l1.233-5.209c5.137-21.702 7.706-32.553 14.049-41.362 6.342-8.808 15.819-14.685 34.772-26.439l4.909-3.044c8.503-5.273 12.755-7.91 16.441-11.251 3.686-3.342 6.725-7.315 12.805-15.262l3.556-4.649c13.479-17.62 20.218-26.43 29.548-31.871 9.329-5.442 20.315-6.971 42.287-10.03l6.177-.86c9.864-1.373 14.796-2.06 19.499-3.612s9.074-3.937 17.817-8.706l5.514-3.007c19.415-10.59 29.122-15.885 39.825-17.075 10.702-1.19 21.336 1.843 42.602 7.91l6.129 1.748c9.566 2.728 14.349 4.093 19.273 4.574 4.923.482 9.88.071 19.793-.751l6.336-.525c22.064-1.83 33.096-2.745 43.374.505s18.778 10.34 35.779 24.523l4.682 3.905c7.663 6.393 11.495 9.589 15.815 12.03 4.32 2.442 9.035 4.075 18.464 7.342l5.699 1.974c21.016 7.282 31.524 10.922 39.634 18.095s13.007 17.157 22.801 37.126l2.461 5.018c4.419 9.009 6.628 13.513 9.598 17.521s6.637 7.432 13.971 14.279l4.031 3.764c16.339 15.257 24.508 22.885 29.015 32.786s4.895 21.072 5.67 43.413l.179 5.181c.35 10.068.524 15.102 1.604 19.993 1.079 4.891 3.04 9.531 6.961 18.811z"/><path fill="#9ce44c" fill-rule="evenodd" d="M378.601 269.808v25.415q0 6.546 4.581 10.974 4.58 4.428 11.352 4.428h26.29q3.186 0 6.174-1.155t5.377-3.465l82.853-80.095q3.585-3.466 5.179-7.894 1.593-4.428 1.593-8.664t-1.792-8.472a26.7 26.7 0 0 0-4.98-7.701l-14.738-14.248q-3.585-3.465-7.966-5.198a24.7 24.7 0 0 0-9.162-1.733q-4.382 0-8.763 1.54t-7.967 5.006l-83.251 80.095q-2.391 2.31-3.585 5.198a15.5 15.5 0 0 0-1.195 5.969m39.036 17.713h-15.136v-14.632l48.596-46.594 14.738 14.248z" clip-rule="evenodd"/><path fill="#9ce44c" d="M460.581 351.653c0-19.07-.014-34.538-.419-47.452l26.834-25.941c2.054 18.495 2.054 42.071 2.054 73.393 0 63.328 0 94.992-16.975 117.014a84.3 84.3 0 0 1-17.506 16.923C431.789 502 399.034 502 333.525 502s-98.264 0-121.044-16.41a84.3 84.3 0 0 1-17.506-16.923C178 446.645 178 414.981 178 351.653c0-63.329 0-94.993 16.975-117.015a84.3 84.3 0 0 1 17.506-16.923c22.78-16.41 55.535-16.41 121.044-16.41 35.495 0 61.374 0 81.261 2.61l-26.396 25.517c-14.469-.588-32.21-.606-54.865-.606-33.402 0-56.122.039-73.422 1.885-16.749 1.787-24.94 4.987-30.611 9.072a56.3 56.3 0 0 0-11.689 11.299c-4.226 5.483-7.535 13.401-9.384 29.593-1.909 16.724-1.95 38.688-1.95 70.978s.041 54.253 1.95 70.977c.415 3.639.905 6.859 1.461 9.728l.277-.195c25.763-18.156 52.428-36.95 75.246-24.232l19.507 11.595c19.054 11.418 40.977-8.039 64.787-29.17 16.046-14.241 32.948-29.242 50.407-36.065 15.942-6.23 26.629-.871 40.47 10.251.006-4.106.007-8.398.007-12.889"/><path fill="#9ce44c" d="M252.072 302.726c0 18.048 14.807 32.363 33.477 32.363 18.671 0 33.478-14.937 33.478-32.363 0-18.049-14.807-32.363-33.478-32.363s-33.477 14.314-33.477 32.363"/></g><defs><clipPath id="a"><path fill="#fff" d="M0 0h678v674H0z"/></clipPath></defs></svg>
